assets/icons/bowtie/1.22/uE640-file-preview.svg

<svg xmlns="http://www.w3.org/2000/svg" viewBox="0 0 448 448" enable-background="new 0 0 448 448"><path d="M192 208c-44.109 0-80 35.891-80 80 0 16.281 4.943 31.402 13.326 44.049l-91.139 91.139 22.625 22.625 91.139-91.139c12.649 8.383 27.772 13.326 44.049 13.326 44.109 0 80-35.875 80-80 0-44.109-35.891-80-80-80zm0 128c-7.605 0-14.705-1.939-21.102-5.102-9.469-4.68-17.117-12.328-21.797-21.797-3.162-6.396-5.101-13.496-5.101-21.101 0-26.469 21.531-48 48-48s48 21.531 48 48-21.531 48-48 48zm102.625-336h-230.625v224h32v-192h160v128h128v256h-224v32h256v-326.625l-121.375-121.375zm-6.625 128v-89.375l89.375 89.375h-89.375z"/></svg>

<svg xmlns="http://www.w3.org/2000/svg" viewBox="0 0 448 448"><path d="M192 208c-44.11 0-80 35.89-80 80 0 16.28 4.943 31.402 13.326 44.05l-91.14 91.138 22.626 22.625 91.14-91.14C160.6 363.058 175.72 368 192 368c44.11 0 80-35.875 80-80 0-44.11-35.89-80-80-80zm0 128c-7.605 0-14.705-1.94-21.102-5.102-9.47-4.68-17.117-12.328-21.797-21.797-3.16-6.393-5.1-13.493-5.1-21.1 0-26.47 21.53-48 48-48s48 21.53 48 48-21.53 48-48 48zM294.625 0H64v224h32V32h160v128h128v256H160v32h256V121.375L294.625 0zM288 128V38.625L377.375 128H288z"/></svg>
